src/lib/packages/icons/src/assets/line/twitter.svg

<svg width="24" height="24" viewBox="0 0 24 24" fill="none" xmlns="http://www.w3.org/2000/svg">
<path d="M22.58 5.42999C22.41 5.21999 22.15 5.13 21.9 5.16C22 4.96 22.08 4.74999 22.15 4.53999C22.25 4.23999 22.15 3.92 21.91 3.72C21.67 3.53 21.33 3.5 21.06 3.66C20.45 4.02 19.77 4.29001 19.07 4.46001C18.19 3.69001 17.03 3.25 15.84 3.25C13.17 3.25 10.99 5.39999 10.99 8.03999C10.99 8.06999 10.99 8.1 10.99 8.13C8.23998 7.77 5.71997 6.37999 3.96997 4.25999C3.80997 4.06999 3.56997 3.97001 3.32997 3.99001C3.08997 4.01001 2.86998 4.15 2.73998 4.36C2.29998 5.1 2.07997 5.92 2.07997 6.78C2.07997 7.54 2.25997 8.26999 2.58997 8.92999C2.52997 8.94999 2.46997 8.97999 2.41997 9.00999C2.18997 9.13999 2.04998 9.41999 2.04998 9.67999C2.04998 11.07 2.65998 12.35 3.65998 13.24C3.49998 13.44 3.43998 13.71 3.51998 13.95C3.93998 15.25 4.89997 16.28 6.10997 16.83C4.85997 17.39 3.43998 17.61 2.06998 17.45C1.71998 17.41 1.38997 17.62 1.27997 17.95C1.15997 18.28 1.28997 18.65 1.58997 18.83C3.57997 20.09 5.89997 20.76 8.28997 20.76C16.06 20.76 20.7 14.54 20.7 8.52V8.36C21.43 7.79 22.07 7.11 22.61 6.34C22.8 6.07 22.79 5.7 22.58 5.44V5.42999ZM19.5 7.38C19.29 7.53 19.17 7.77999 19.19 8.03999C19.2 8.19999 19.2 8.34999 19.2 8.50999C19.2 13.79 15.12 19.25 8.28997 19.25C7.16997 19.25 6.06998 19.08 5.01998 18.76C6.28998 18.47 7.47997 17.91 8.52997 17.1C8.77997 16.91 8.87997 16.57 8.77997 16.27C8.67997 15.97 8.39997 15.76 8.07997 15.75C7.04997 15.73 6.09997 15.25 5.49997 14.49C5.75997 14.46 6.01998 14.42 6.26998 14.35C6.60998 14.26 6.83997 13.95 6.82997 13.6C6.82997 13.25 6.56997 12.95 6.22997 12.88C5.05997 12.65 4.13997 11.83 3.74997 10.75C4.03997 10.81 4.32997 10.85 4.61997 10.86C4.99997 10.88 5.25997 10.66 5.35997 10.34C5.45997 10.02 5.33997 9.67 5.05997 9.48C4.12997 8.87 3.56998 7.85001 3.56998 6.74001C3.56998 6.52001 3.58998 6.3 3.62998 6.09C5.78998 8.22 8.69997 9.51 11.79 9.67C12.02 9.67 12.25 9.59 12.4 9.41C12.55 9.23 12.61 9 12.56 8.77C12.5 8.5 12.48 8.24 12.48 8C12.48 6.19 13.98 4.71001 15.83 4.71001C16.77 4.71001 17.64 5.08 18.28 5.75C18.46 5.93 18.71 6.02 18.96 5.97C19.01 5.97 19.05 5.95 19.1 5.94C18.89 6.14 18.82 6.44 18.91 6.72C19.01 7.03 19.3 7.24001 19.62 7.24001C19.62 7.24001 19.53 7.31 19.48 7.34L19.5 7.38Z" fill="currentColor"/>
</svg>

<svg xmlns="http://www.w3.org/2000/svg" width="24" height="24" fill="none"><path fill="currentColor" d="M22.58 5.43a.754.754 0 0 0-.68-.27c.1-.2.18-.41.25-.62.1-.3 0-.62-.24-.82a.755.755 0 0 0-.85-.06c-.61.36-1.29.63-1.99.8a4.934 4.934 0 0 0-3.23-1.21c-2.67 0-4.85 2.15-4.85 4.79v.09c-2.75-.36-5.27-1.75-7.02-3.87a.758.758 0 0 0-.64-.27c-.24.02-.46.16-.59.37-.44.74-.66 1.56-.66 2.42 0 .76.18 1.49.51 2.15-.06.02-.12.05-.17.08-.23.13-.37.41-.37.67 0 1.39.61 2.67 1.61 3.56-.16.2-.22.47-.14.71.42 1.3 1.38 2.33 2.59 2.88-1.25.56-2.67.78-4.04.62a.743.743 0 0 0-.79.5c-.12.33.01.7.31.88a12.51 12.51 0 0 0 6.7 1.93c7.77 0 12.41-6.22 12.41-12.24v-.16c.73-.57 1.37-1.25 1.91-2.02a.75.75 0 0 0-.03-.9v-.01ZM19.5 7.38c-.21.15-.33.4-.31.66.01.16.01.31.01.47 0 5.28-4.08 10.74-10.91 10.74-1.12 0-2.22-.17-3.27-.49 1.27-.29 2.46-.85 3.51-1.66.25-.19.35-.53.25-.83-.1-.3-.38-.51-.7-.52-1.03-.02-1.98-.5-2.58-1.26.26-.03.52-.07.77-.14.34-.09.57-.4.56-.75 0-.35-.26-.65-.6-.72a3.306 3.306 0 0 1-2.48-2.13c.29.06.58.1.87.11.38.02.64-.2.74-.52.1-.32-.02-.67-.3-.86a3.269 3.269 0 0 1-1.49-2.74c0-.22.02-.44.06-.65 2.16 2.13 5.07 3.42 8.16 3.58.23 0 .46-.08.61-.26.15-.18.21-.41.16-.64-.06-.27-.08-.53-.08-.77 0-1.81 1.5-3.29 3.35-3.29.94 0 1.81.37 2.45 1.04.18.18.43.27.68.22.05 0 .09-.02.14-.03-.21.2-.28.5-.19.78.1.31.39.52.71.52 0 0-.09.07-.14.1l.02.04Z"/></svg>
